Font-Source/Egyptian2/svg-my/142D6.svg

<?xml version="1.0" encoding="UTF-8" standalone="no"?>
<svg
   width="180"
   height="500"
   version="1.1"
   id="svg1"
   sodipodi:docname="142D6.svg"
   inkscape:version="1.4.2 (f4327f4, 2025-05-13)"
   xml:space="preserve"
   xmlns:inkscape="http://www.inkscape.org/namespaces/inkscape"
   xmlns:sodipodi="http://sodipodi.sourceforge.net/DTD/sodipodi-0.dtd"
   xmlns="http://www.w3.org/2000/svg"
   xmlns:svg="http://www.w3.org/2000/svg"><defs
     id="defs1" /><sodipodi:namedview
     id="namedview1"
     pagecolor="#ffffff"
     bordercolor="#666666"
     borderopacity="1.0"
     inkscape:showpageshadow="2"
     inkscape:pageopacity="0.0"
     inkscape:pagecheckerboard="0"
     inkscape:deskcolor="#d1d1d1"
     inkscape:zoom="1.0677312"
     inkscape:cx="112.38784"
     inkscape:cy="0.46828265"
     inkscape:window-width="1680"
     inkscape:window-height="998"
     inkscape:window-x="-8"
     inkscape:window-y="-8"
     inkscape:window-maximized="1"
     inkscape:current-layer="svg1"
     showguides="true"><sodipodi:guide
       position="186.09272,339.07284"
       orientation="1,0"
       id="guide1"
       inkscape:locked="false" /><sodipodi:guide
       position="90,500"
       orientation="1,0"
       id="guide2"
       inkscape:locked="false" /><sodipodi:guide
       position="180,0"
       orientation="0,-1"
       id="guide3"
       inkscape:locked="false" /></sodipodi:namedview><path
     id="path6-9"
     style="baseline-shift:baseline;display:inline;overflow:visible;opacity:1;vector-effect:none;fill:#000000;enable-background:accumulate;stop-color:#000000;stop-opacity:1"
     d="M 87.316406,0 C 59.007114,0 41.953008,24.128607 49.177734,52.294922 L 70.488281,46.828125 C 70.123576,45.406287 64.466807,22 87.316406,22 97.267838,22 111.49604,25.661024 110.41406,46.873047 109.58064,63.212033 98.006547,86.498524 74.013672,104.4082 l 0.02148,0.0293 H -6.0917969 v 25 H 75 V 369.77734 H 23.269531 v 20 h 45.021485 c -21.079686,8.53063 -36.0625,29.07816 -36.0625,53.00391 C 32.228516,474.32697 58.275046,500 90,500 c 31.72495,0 57.77148,-25.67303 57.77148,-57.21875 0,-23.92575 -14.98281,-44.47328 -36.0625,-53.00391 h 45.02149 v -20 H 105 V 129.4375 h 81.0918 v -25 h -79.5 C 122.66899,86.628584 131.44121,66.530574 132.38672,47.994141 133.84652,19.375087 115.51646,0 87.316406,0 Z M 90,405.5625 c 21.04105,0 37.77148,16.60818 37.77148,37.21875 C 127.77148,463.39182 111.04105,480 90,480 68.958952,480 52.228516,463.39182 52.228516,442.78125 52.228516,422.17068 68.958952,405.5625 90,405.5625 Z"
     sodipodi:nodetypes="sccsscccccccccsssccccccccsssssss" /></svg>

<?xml version="1.0" encoding="UTF-8" standalone="no"?>
<svg
   width="180"
   height="500"
   version="1.1"
   id="svg1"
   sodipodi:docname="142D6.svg"
   inkscape:version="1.4.2 (f4327f4, 2025-05-13)"
   xml:space="preserve"
   xmlns:inkscape="http://www.inkscape.org/namespaces/inkscape"
   xmlns:sodipodi="http://sodipodi.sourceforge.net/DTD/sodipodi-0.dtd"
   xmlns="http://www.w3.org/2000/svg"
   xmlns:svg="http://www.w3.org/2000/svg"><defs
     id="defs1" /><sodipodi:namedview
     id="namedview1"
     pagecolor="#ffffff"
     bordercolor="#666666"
     borderopacity="1.0"
     inkscape:showpageshadow="2"
     inkscape:pageopacity="0.0"
     inkscape:pagecheckerboard="0"
     inkscape:deskcolor="#d1d1d1"
     inkscape:zoom="0.37749999"
     inkscape:cx="76.821195"
     inkscape:cy="305.96028"
     inkscape:window-width="1680"
     inkscape:window-height="998"
     inkscape:window-x="-8"
     inkscape:window-y="-8"
     inkscape:window-maximized="1"
     inkscape:current-layer="svg1"
     showguides="true"><sodipodi:guide
       position="186.09272,339.07284"
       orientation="1,0"
       id="guide1"
       inkscape:locked="false" /><sodipodi:guide
       position="90,500"
       orientation="1,0"
       id="guide2"
       inkscape:locked="false" /><sodipodi:guide
       position="180,0"
       orientation="0,-1"
       id="guide3"
       inkscape:locked="false" /></sodipodi:namedview><path
     id="path6-9"
     style="baseline-shift:baseline;display:inline;overflow:visible;vector-effect:none;fill:#000000;enable-background:accumulate;stop-color:#000000;stop-opacity:1;opacity:1"
     d="M 87.316406 0.037109375 C 72.359664 0.037109385 60.259799 7.2043496 54.152344 17.421875 C 48.044889 27.6394 47.268493 39.86385 50.146484 51.083984 L 69.519531 46.113281 C 67.769521 39.290691 68.596989 32.234384 71.318359 27.681641 C 74.03973 23.128897 77.993872 20.037109 87.316406 20.037109 C 96.954036 20.037109 102.45817 22.890191 106.10742 27.076172 C 109.75668 31.262153 111.8408 37.594887 111.41406 45.960938 C 110.56059 62.693039 98.806407 86.185478 74.611328 104.24609 L 74.753906 104.4375 L -6.0917969 104.4375 L -6.0917969 129.4375 L 75 129.4375 L 75 369.77734 L 23.269531 369.77734 L 23.269531 389.77734 L 68.291016 389.77734 C 47.21133 398.30797 32.228516 418.8555 32.228516 442.78125 C 32.228516 474.32697 58.275046 500 90 500 C 121.72495 500 147.77148 474.32697 147.77148 442.78125 C 147.77148 418.8555 132.78867 398.30797 111.70898 389.77734 L 156.73047 389.77734 L 156.73047 369.77734 L 105 369.77734 L 105 129.4375 L 186.0918 129.4375 L 186.0918 104.4375 L 104.34375 104.4375 C 121.24301 86.36823 130.4273 65.789764 131.38672 46.980469 C 132.01397 34.683266 128.91211 22.798804 121.18359 13.933594 C 113.45508 5.068383 101.38845 0.037109385 87.316406 0.037109375 z M 90 405.5625 C 111.04105 405.5625 127.77148 422.17068 127.77148 442.78125 C 127.77148 463.39182 111.04105 480 90 480 C 68.958952 480 52.228516 463.39182 52.228516 442.78125 C 52.228516 422.17068 68.958952 405.5625 90 405.5625 z " /></svg>
